images_sukapura_svg/cmd/sc_shadowed.svg

<svg viewBox="0 0 16 16" xmlns="http://www.w3.org/2000/svg"><path d="m11.519331 11.730863h-5.4806121l-1.1153526 3.269137h-2.3653166l5.144083-13.9995978h2.2114749l5.0863924 13.9995978h-2.374932zm-4.8075545-1.9518668h4.1441115l-2.0287877-5.9805975h-.057691z" fill="#98989d" transform="translate(1)"/><path d="m9.5193315 10.731618h-5.4806118l-1.1153526 3.269136h-2.36531662l5.14408302-13.99959743h2.2114749l5.0863926 13.99959743h-2.374932zm-4.8075542-1.9518675h4.1441117l-2.0287879-5.9805974h-.057691z" fill="#4b4b4f"/></svg>

<?xml version="1.0" encoding="UTF-8" standalone="no"?>
<svg
   xmlns:dc="http://purl.org/dc/elements/1.1/"
   xmlns:cc="http://creativecommons.org/ns#"
   xmlns:rdf="http://www.w3.org/1999/02/22-rdf-syntax-ns#"
   xmlns:svg="http://www.w3.org/2000/svg"
   xmlns="http://www.w3.org/2000/svg"
   xmlns:sodipodi="http://sodipodi.sourceforge.net/DTD/sodipodi-0.dtd"
   xmlns:inkscape="http://www.inkscape.org/namespaces/inkscape"
   viewBox="0 0 16 16"
   version="1.1"
   id="svg14423"
   sodipodi:docname="sc_shadowed.svg"
   inkscape:export-filename="D:\Rizmut\libreoffice-style-sukapura-master\images_sukapura\cmd\sc_shadowed.png"
   inkscape:export-xdpi="96"
   inkscape:export-ydpi="96"
   inkscape:version="0.92.3 (2405546, 2018-03-11)">
  <metadata
     id="metadata14429">
    <rdf:RDF>
      <cc:Work
         rdf:about="">
        <dc:format>image/svg+xml</dc:format>
        <dc:type
           rdf:resource="http://purl.org/dc/dcmitype/StillImage" />
      </cc:Work>
    </rdf:RDF>
  </metadata>
  <defs
     id="defs14427" />
  <sodipodi:namedview
     pagecolor="#ffffff"
     bordercolor="#666666"
     borderopacity="1"
     objecttolerance="10"
     gridtolerance="10"
     guidetolerance="10"
     inkscape:pageopacity="0"
     inkscape:pageshadow="2"
     inkscape:window-width="1366"
     inkscape:window-height="716"
     id="namedview14425"
     showgrid="true"
     inkscape:zoom="22.627417"
     inkscape:cx="14.039018"
     inkscape:cy="5.6845754"
     inkscape:window-x="-8"
     inkscape:window-y="-8"
     inkscape:window-maximized="1"
     inkscape:current-layer="svg14423">
    <inkscape:grid
       type="xygrid"
       id="grid14974" />
  </sodipodi:namedview>
  <g
     aria-label="A"
     style="font-style:normal;font-weight:normal;font-size:19.69174194px;line-height:1.25;font-family:sans-serif;letter-spacing:0px;word-spacing:0px;fill:#98989d;fill-opacity:1;stroke:none;stroke-width:0.49229354"
     id="text14986"
     transform="translate(1)">
    <path
       d="M 11.519331,11.730863 H 6.0387189 L 4.9233663,15 H 2.5580497 L 7.7021327,1.0004022 H 9.9136076 L 15,15 H 12.625068 Z M 6.7117765,9.7789962 H 10.855888 L 8.8271003,3.7983987 h -0.057691 z"
       style="font-style:normal;font-variant:normal;font-weight:500;font-stretch:normal;font-family:Roboto;-inkscape-font-specification:'Roboto Medium';fill:#98989d;fill-opacity:1;stroke-width:0.49229354"
       id="path14991"
       inkscape:connector-curvature="0" />
  </g>
  <g
     aria-label="A"
     style="font-style:normal;font-weight:normal;font-size:19.69174194px;line-height:1.25;font-family:sans-serif;letter-spacing:0px;word-spacing:0px;fill:#4b4b4f;fill-opacity:1;stroke:none;stroke-width:0.49229354"
     id="text14271">
    <path
       d="M 9.5193315,10.731618 H 4.0387197 L 2.9233671,14.000754 H 0.55805048 L 5.7021335,0.00115657 H 7.9136084 L 13.000001,14.000754 H 10.625069 Z M 4.7117773,8.7797505 H 8.855889 L 6.8271011,2.7991531 h -0.057691 z"
       style="font-style:normal;font-variant:normal;font-weight:500;font-stretch:normal;font-family:Roboto;-inkscape-font-specification:'Roboto Medium';fill:#4b4b4f;fill-opacity:1;stroke-width:0.49229354"
       id="path14988" />
  </g>
</svg>
